app/assets/images/homepage/mac-phone.svg

<svg width="400" height="276" viewBox="0 0 400 276" fill="none" xmlns="http://www.w3.org/2000/svg">
<g clip-path="url(#clip0)">
<path d="M156.019 103.28C156.019 101.227 157.686 99.6617 159.647 99.6617H364.011C366.07 99.6617 367.639 101.324 367.639 103.28V245.877H380.583V99.7595C380.583 94.4781 376.269 90.1748 370.973 90.1748H152.684C147.389 90.1748 143.074 94.4781 143.074 99.7595V245.779H156.019V103.28Z" fill="black"/>
<path d="M279.285 253.212H244.473V260.938H279.285V253.212Z" fill="#727272"/>
<path d="M286.639 253.212V264.557C286.639 266.611 284.972 268.176 283.011 268.176H240.843C238.784 268.176 237.215 266.513 237.215 264.557V253.212H123.756C125.521 266.024 136.602 276 150.037 276H373.719C387.056 276 398.235 266.024 400 253.212H286.639Z" fill="#C4C4C4"/>
<path d="M364.11 99.5635H159.648C157.589 99.5635 156.02 101.226 156.02 103.182V245.779H367.738V103.28C367.738 101.226 366.071 99.5635 364.11 99.5635Z" fill="#B2E3FF"/>
<path d="M107.967 143.184H36.7731C33.439 143.184 31.6738 144.944 31.6738 148.269V245.583C31.6738 248.909 33.439 250.669 36.7731 250.669H107.967C111.301 250.669 113.066 248.811 113.066 245.583V148.269C113.066 145.042 111.203 143.184 107.967 143.184Z" fill="#26374A"/>
<path d="M117.969 197.269C117.969 217.514 117.871 237.857 117.969 258.102C118.165 266.415 112.38 273.653 104.142 275.413C102.965 275.707 101.691 275.805 100.416 275.805C81.5877 275.805 62.7596 275.805 43.9314 275.805C35.6941 275.902 28.6335 270.23 26.8684 262.21C26.6723 261.036 26.5742 259.863 26.5742 258.689C26.5742 217.71 26.5742 176.73 26.5742 135.751C26.6723 126.948 33.3406 119.711 42.0682 118.733C43.0488 118.635 44.1275 118.537 45.1082 118.537H99.9255C103.652 118.44 107.378 119.515 110.516 121.667C115.321 124.699 118.165 130.078 118.067 135.848C117.969 156.387 117.969 176.828 117.969 197.269ZM111.105 196.975V148.269C111.105 146.02 110.222 145.14 107.967 145.14H36.7728C34.5173 145.14 33.6348 146.02 33.6348 148.269V245.583C33.6348 247.931 34.5173 248.713 36.7728 248.713H107.967C110.222 248.713 111.105 247.735 111.105 245.583V196.975ZM72.2717 270.034C76.5865 270.034 80.1168 266.513 80.1168 262.21C80.1168 257.907 76.5865 254.386 72.2717 254.386C67.9569 254.386 64.4266 257.907 64.4266 262.21C64.4266 266.513 67.9569 270.034 72.2717 270.034ZM72.2717 131.741H84.3335C85.2161 131.839 86.0006 131.252 86.0986 130.372C86.0986 129.491 85.4122 128.807 84.5296 128.807H60.6022C60.2099 128.709 59.9157 128.807 59.5235 129.002C59.1312 129.393 58.6409 129.883 58.6409 130.274C58.6409 130.665 59.1312 131.252 59.5235 131.545C59.8177 131.741 60.2099 131.741 60.6022 131.741H72.2717Z" fill="#C4C4C4"/>
<path d="M127.482 0H61.7799H53.3464H12.6502C5.68767 0 0 5.67257 0 12.6166V79.905C0 86.849 5.68767 92.5216 12.6502 92.5216H26.8693H39.3234L62.1721 115.31V92.5216H74.0378H81.0983H127.482C134.445 92.5216 140.132 86.849 140.132 79.905V12.6166C140.132 5.67257 134.445 0 127.482 0Z" fill="#B2E3FF"/>
<path d="M131.797 79.9051C131.797 82.2524 129.934 84.1106 127.58 84.1106H95.6118H84.7268H74.0379H53.8369V92.5217V94.9668L51.3853 92.5217L42.9519 84.1106H26.8695H12.6503C10.2968 84.1106 8.43359 82.2524 8.43359 79.9051H8.53166V12.6167C8.53166 10.2694 10.3949 8.41113 12.7484 8.41113H127.58C129.934 8.41113 131.797 10.2694 131.797 12.6167V79.9051Z" fill="white"/>
<path d="M92.1798 25.7227H30.498V31.1018H92.1798V25.7227Z" fill="#26374A"/>
<path d="M92.1798 40.2949H30.498V45.6741H92.1798V40.2949Z" fill="#26374A"/>
<path d="M92.1798 54.8682H30.498V60.2473H92.1798V54.8682Z" fill="#26374A"/>
<path d="M54.622 69.4404H49.2285V74.8196H54.622V69.4404Z" fill="#26374A"/>
<path d="M43.9325 69.4404H38.5391V74.8196H43.9325V69.4404Z" fill="#26374A"/>
<path d="M65.4091 69.4404H60.0156V74.8196H65.4091V69.4404Z" fill="#26374A"/>
<path d="M96.0029 174.188H49.4229H45.8926V175.557V223.676C45.8926 226.61 48.2461 229.055 51.2861 229.055H82.6663H94.3358C97.2777 229.055 99.7293 226.61 99.7293 223.676V217.416V174.188H96.0029Z" fill="white"/>
<path d="M94.2382 163.918H62.8579H51.1884C48.2465 163.918 45.7949 166.363 45.7949 169.297V174.187H49.3252H95.9052H99.4355V169.297C99.5336 166.363 97.1801 163.918 94.2382 163.918Z" fill="#727272"/>
<path d="M91.0014 191.987H54.4238V195.117H91.0014V191.987Z" fill="#26374A"/>
<path d="M91.0014 200.691H54.4238V203.821H91.0014V200.691Z" fill="#26374A"/>
<path d="M91.0014 209.299H54.4238V212.526H91.0014V209.299Z" fill="#26374A"/>
<path d="M68.6439 217.905H65.5059V221.035H68.6439V217.905Z" fill="#26374A"/>
<path d="M62.2689 217.905H59.1309V221.035H62.2689V217.905Z" fill="#26374A"/>
<path d="M75.0169 217.905H71.8789V221.035H75.0169V217.905Z" fill="#26374A"/>
<path d="M156.019 106.214C156.019 104.161 157.686 102.596 159.647 102.596H364.011C366.07 102.596 367.639 104.258 367.639 106.214V245.877H380.583V99.7595C380.583 94.4781 376.269 90.1748 370.973 90.1748H152.684C147.389 90.1748 143.074 94.4781 143.074 99.7595V245.779H156.019V106.214Z" fill="#C4C4C4"/>
<path d="M338.122 60.2461H215.935H206.619V63.767V189.835C206.619 197.561 212.895 203.821 220.642 203.821H302.819H333.415C341.162 203.821 347.438 197.561 347.438 189.835V173.404V60.2461H338.122Z" fill="white"/>
<path d="M333.415 33.3506H251.238H220.642C212.895 33.3506 206.619 39.61 206.619 47.3364V60.2464H215.935H338.024H347.34V47.4342C347.438 39.7078 341.162 33.3506 333.415 33.3506Z" fill="#727272"/>
<path d="M325.08 97.1182H229.076V105.431H325.08V97.1182Z" fill="#26374A"/>
<path d="M325.08 119.809H229.076V128.122H325.08V119.809Z" fill="#26374A"/>
<path d="M325.08 142.499H229.076V150.812H325.08V142.499Z" fill="#26374A"/>
<path d="M266.537 165.189H258.201V173.503H266.537V165.189Z" fill="#26374A"/>
<path d="M249.865 165.189H241.529V173.503H249.865V165.189Z" fill="#26374A"/>
<path d="M283.306 165.189H274.971V173.503H283.306V165.189Z" fill="#26374A"/>
</g>
<defs>
<clipPath id="clip0">
<rect width="400" height="276" fill="white"/>
</clipPath>
</defs>
</svg>

<svg width="400" height="276" fill="none" xmlns="http://www.w3.org/2000/svg"><g clip-path="url(#clip0)"><path d="M156.019 103.28c0-2.053 1.667-3.618 3.628-3.618h204.364a3.615 3.615 0 0 1 3.628 3.618v142.597h12.944V99.759c0-5.28-4.314-9.584-9.61-9.584H152.684c-5.295 0-9.61 4.303-9.61 9.585v146.019h12.945V103.28z" fill="#000"/><path d="M279.285 253.212h-34.812v7.726h34.812v-7.726z" fill="#727272"/><path d="M286.639 253.212v11.345c0 2.054-1.667 3.619-3.628 3.619h-42.168a3.615 3.615 0 0 1-3.628-3.619v-11.345H123.756C125.521 266.024 136.602 276 150.037 276h223.682c13.337 0 24.516-9.976 26.281-22.788H286.639z" fill="#C4C4C4"/><path d="M364.11 99.564H159.648a3.615 3.615 0 0 0-3.628 3.618v142.597h211.718V103.28c0-2.054-1.667-3.716-3.628-3.716zM107.967 143.184H36.773c-3.334 0-5.1 1.76-5.1 5.085v97.314c0 3.326 1.766 5.086 5.1 5.086h71.194c3.334 0 5.099-1.858 5.099-5.086v-97.314c0-3.227-1.863-5.085-5.099-5.085z" fill="#B2E3FF"/><path d="M117.969 197.269c0 20.245-.098 40.588 0 60.833.196 8.313-5.589 15.551-13.827 17.311-1.177.294-2.451.392-3.726.392H43.931c-8.237.097-15.297-5.575-17.063-13.595a21.33 21.33 0 0 1-.294-3.521V135.751c.098-8.803 6.767-16.04 15.494-17.018.98-.098 2.06-.196 3.04-.196h54.818a17.93 17.93 0 0 1 10.59 3.13c4.805 3.032 7.649 8.411 7.551 14.181-.098 20.539-.098 40.98-.098 61.421zm-6.864-.294v-48.706c0-2.249-.883-3.129-3.138-3.129H36.773c-2.256 0-3.138.88-3.138 3.129v97.314c0 2.348.882 3.13 3.138 3.13h71.194c2.255 0 3.138-.978 3.138-3.13v-48.608zm-38.833 73.059c4.314 0 7.845-3.521 7.845-7.824s-3.53-7.824-7.845-7.824c-4.315 0-7.845 3.521-7.845 7.824s3.53 7.824 7.845 7.824zm0-138.293h12.061c.883.098 1.668-.489 1.766-1.369 0-.881-.687-1.565-1.57-1.565H60.603c-.392-.098-.686 0-1.078.195-.393.391-.883.881-.883 1.272s.49.978.883 1.271c.294.196.686.196 1.078.196h11.67z" fill="#000"/><path d="M127.482 0H12.65C5.688 0 0 5.673 0 12.617v67.288c0 6.944 5.688 12.617 12.65 12.617H39.323l22.85 22.788V92.522h65.309c6.963 0 12.65-5.673 12.65-12.617V12.617c0-6.944-5.687-12.617-12.65-12.617z" fill="#B2E3FF"/><path d="M131.797 79.905a4.18 4.18 0 0 1-4.217 4.206H53.837v10.856l-2.452-2.445-8.433-8.411H12.65a4.18 4.18 0 0 1-4.216-4.206h.098V12.617a4.18 4.18 0 0 1 4.216-4.206H127.58a4.18 4.18 0 0 1 4.217 4.206v67.288z" fill="#fff"/><path d="M92.18 25.723H30.498v5.379H92.18v-5.38zM92.18 40.295H30.498v5.38H92.18v-5.38zM92.18 54.868H30.498v5.38H92.18v-5.38zM54.622 69.44h-5.394v5.38h5.394v-5.38zM43.932 69.44H38.54v5.38h5.393v-5.38zM65.41 69.44h-5.394v5.38h5.393v-5.38z" fill="#000"/><path d="M96.003 174.188h-50.11v49.488a5.37 5.37 0 0 0 5.393 5.379h43.05c2.942 0 5.393-2.445 5.393-5.379v-49.488h-3.726z" fill="#fff"/><path d="M94.238 163.918h-43.05c-2.942 0-5.393 2.445-5.393 5.379v4.89h53.64v-4.89a5.206 5.206 0 0 0-5.197-5.379zM91.001 191.987H54.424v3.13H91v-3.13zM91.001 200.691H54.424v3.13H91v-3.13zM91.001 209.299H54.424v3.227H91v-3.227zM68.644 217.905h-3.138v3.13h3.138v-3.13zM62.269 217.905H59.13v3.13h3.138v-3.13zM75.017 217.905h-3.138v3.13h3.138v-3.13zM156.019 106.214c0-2.053 1.667-3.618 3.628-3.618h204.364a3.614 3.614 0 0 1 3.628 3.618v139.663h12.944V99.759c0-5.28-4.314-9.584-9.61-9.584H152.684c-5.295 0-9.61 4.303-9.61 9.585v146.019h12.945V106.214z" fill="#000"/><path d="M338.122 60.246H206.619v129.589c0 7.726 6.276 13.986 14.023 13.986H333.415c7.747 0 14.023-6.26 14.023-13.986V60.246h-9.316z" fill="#fff"/><path d="M333.415 33.35H220.642c-7.747 0-14.023 6.26-14.023 13.986v12.91H347.34V47.434c.098-7.726-6.178-14.083-13.925-14.083zM325.08 97.118h-96.004v8.313h96.004v-8.313zM325.08 119.809h-96.004v8.313h96.004v-8.313zM325.08 142.499h-96.004v8.313h96.004v-8.313zM266.537 165.189h-8.336v8.314h8.336v-8.314zM249.865 165.189h-8.336v8.314h8.336v-8.314zM283.306 165.189h-8.335v8.314h8.335v-8.314z" fill="#000"/></g><defs><clipPath id="clip0"><path fill="#fff" d="M0 0h400v276H0z"/></clipPath></defs></svg>
